X: 3
T: The Castle
R: jig
M: 6/8
L: 1/8
K: Cmaj
fed edc|dcA GEC| DED AcA|GAc dcA|fed edc|dcA GEC|DED AcA|1 GEC D3:|2 GEC D2 F||FED ~d3|edc AGE|CEG cBc|CEG FED|~F3 ~G3|AGA cde|dcA GEC|1 A,B,C D3:|


Tune 273	Setting 13016

